X:1
T:Flamine faeta sacro
T:Daniel Friderici
T:Source : Bicinia sacra---Rostock---J.Richelius---1642. Editor : André Vierendeels (06/07/17).
T:Notes : Original clefs : C1, C1 Original note values have been quartered in 3-beat measures Editorial accidentals above the staff  
T:Flamine faeta sacro
T:©
T:©
T:©
C:Daniel Friderici
Z:©
%%score [ 1 2 ]
L:1/8
Q:1/4=120
M:6/4
K:F
V:1 treble nm="Soprano 1" snm="S 1"
V:2 treble nm="Soprano 2" snm="S 2"
V:1
 z12 | G3 G A2 B2 B2 c2 | d4 z2 G3 G A2 | B2 B2 c2 d4 z2 | f4 e2 d4 c2 | B3 B A2 d4 c2 | %6
w: |Fla- mi- ne fae- ta sa-|cro, fla- mi- ne|fae- ta sa- cro,|vir- go pa- rit|in- nu- ba, vir- go|
 B4 A2 G3 G ^F2 | B4 A2 G4 F2 | _E3 E D2 G4 F2 | _E4 D2 C3 C D2 |[M:2/2] z4 d4- | d2 c2 B2 A2 | %12
w: pa- rit in- nu- ba,|vir- go pa- rit|in- nu- ba, vir- go|pa- rit in- nu- ba,|ver-||
 G2 A2 B2 c2 | d4 ^c2 =B2 | ^c2 d4 c2 | d8 :: z8 | d8 | z8 | d6 e2 | f8 | d4 d4 | c4 d4 | G4 A4 | %24
w: |||bum:||O,||O, _|_|quan- tum|est, O|quan- tum|
 B8 | z8 | d8 | z4 d4 | c4 B4 | A4 z2 d2 | c4 B4 | A4 z2 d2 | DCDE F2 G2 | A4 z2 d2 | DCDE F2 G2 | %35
w: est,||O,|O|quan- tum|est, O|quan- tum|est, O|quan- * * * * tum|est, O|quan- * * * * tum|
 A2 B3 B B2 | A3 A A2 G2 | G4 ^F4 | G2 d3 d c2 | d3 d G2 A2- | A2 B2 AGAB | A2 G3 ^F/E/ F2 | G8 :| %43
w: est, ho- mi- nis|su- me- re mem-|bra De-|um, ho- mi- nis|su- me- re mem-|* bra De- * * *||um.|
V:2
 G3 G A2 B2 B2 c2 | d4 z2 G3 G A2 | B2 B2 c2 d4 z2 | f4 e2 d4 c2 | d4 c2 B3 B A2 | d4 c2 B4 A2 | %6
w: Fla- mi- ne fae- ta sa-|cro, fla- mi- ne|fae- ta sa- cro,|vir- go pa- rit|_ _ in- nu- ba,|vir- go pa- rit|
 G3 G ^F2 B4 A2 | G4 F2 _E3 E D2 | G4 F2 _E4 D2 | C3 C D2 _E3 E D2 |[M:2/2] d6 c2 | B2 A2 G2 A2 | %12
w: in- nu- ba, vir- go|pa- rit in- nu- ba|vir- go pa- rit|in- nu- ba, in- nu- ba,|ver- *||
 B2 c2 d2 c2 | B4 A2 G2 | A8 | D8 :: d8 | z8 | d6 e2 | f8 | d6 c2 | B4 B4 | A4 G4 | d4 c4 | B8 | %25
w: |||bum:|O,||O, _|_|quan- *|* tum|est, O|quan- tum|est,|
 d8 | z4 d4 | c4 B4 | A4 z2 d2 | c4 B4 | A4 z2 d2 | DCDE F2 G2 | A4 z2 d2 | DCDE F2 G2 | A4 z4 | %35
w: O,|O,|quan- tum|est, O|quan- tum|est, O|quan- * * * * tum|est, O,|quan- * * * * tum|est,|
 z2 d3 d d2 | c3 c c2 B2- | B2 B2 A4 | G2 G3 G A2 | B3 B B2 c2- | c2 d2 cBcd | c2 B2 A4 | G8 :| %43
w: ho- mi- nis|su- me- re mem-|* bra De-|um, ho- mi- nis|su- me- re mem|_ bra De- * * *||um.|

